icons/rescriptinterface.svg

<svg width="16" height="16" viewBox="0 0 16 16" fill="none" xmlns="http://www.w3.org/2000/svg">
<path fill-rule="evenodd" clip-rule="evenodd" d="M8 1.5C4.13401 1.5 1.5 4.13401 1.5 8C1.5 11.866 4.13401 14.5 8 14.5C11.866 14.5 14.5 11.866 14.5 8C14.5 4.13401 11.866 1.5 8 1.5ZM9 6.5C9 6.05575 9.19313 5.65661 9.5 5.38195C9.76538 5.14443 10.1158 5 10.5 5C11.3284 5 12 5.67157 12 6.5C12 7.32843 11.3284 8 10.5 8C10.1158 8 9.76538 7.85557 9.5 7.61805C9.19313 7.34339 9 6.94425 9 6.5ZM6 5H8V10C8 10.5523 7.55228 11 7 11H6C5.44772 11 5 10.5523 5 10V6C5 5.44772 5.44772 5 6 5Z" fill="#8078DC"/>
</svg>

<svg xmlns="http://www.w3.org/2000/svg" width="16" height="16" fill="none" viewBox="0 0 16 16"><path fill="#8078DC" fill-rule="evenodd" d="M8 1.5C4.134 1.5 1.5 4.134 1.5 8s2.634 6.5 6.5 6.5 6.5-2.634 6.5-6.5S11.866 1.5 8 1.5m1 5A1.496 1.496 0 0 1 10.5 5 1.5 1.5 0 1 1 9 6.5M6 5h2v5a1 1 0 0 1-1 1H6a1 1 0 0 1-1-1V6a1 1 0 0 1 1-1" clip-rule="evenodd"/></svg>
